X: 50
T: Chuanbusi guimeiren siwanle
%%abc-version 2.0
%%abcx-abcm2ps-target-version 5.9.1 (29 Sep 2008)
%%abc-creator hum2abc beta
%%abcx-conversion-date 2013/10/02 07:52:29
%%abc-edited-by Helmut Schaffrath
%%humdrum-veritas 3047291798
%%humdrum-veritas-data 434064451
%%continueall 1
%%barnumbers 0
L: 1/8
M: 2/4
K: G
a A d e/ e/ [I:setbarnb 1]| 
d/ e/A2z | 
a A d e/ e/ | 
a4 | 
a d e g | 
d/ e/A2z | 
ad2e | 
d4 |]  



